icon-themes/breeze_svg/cmd/32/openreadonly.svg

<svg viewBox="0 0 32 32" xmlns="http://www.w3.org/2000/svg"><path d="m4 4v24h10v-1h-9v-13h5l3-3h14v5h1v-9h-10l-3-3zm20.398438 12-5.111329 5.109375-3.287109 3.289063v3.601562h3.601562l8.398438-8.398438zm-2.048829 3.490234 2.160157 2.160157-3.173828 3.175781v-.675781l-1.013672.023437h-1.03711v-1.037109l.001953-.583985 1.439453-1.441406zm-4.076171 4.074219v1.621094h2.027343l.021485.654297-1.080078 1.080078h-1.441407l-.720703-.720703v-1.441407z" fill="#b3b3b3"/></svg>

<svg xmlns="http://www.w3.org/2000/svg" viewBox="0 0 32 32">
 <path 
     style="fill:#b3b3b3" 
     d="M 4 4 L 4 28 L 14 28 L 14 27 L 5 27 L 5 14 L 10 14 L 13 11 L 27 11 L 27 16 L 28 16 L 28 7 L 18 7 L 15 4 L 4 4 z M 24.398438 16 L 19.287109 21.109375 L 16 24.398438 L 16 28 L 19.601562 28 L 28 19.601562 L 24.398438 16 z M 22.349609 19.490234 L 24.509766 21.650391 L 21.335938 24.826172 L 21.335938 24.150391 L 20.322266 24.173828 L 19.285156 24.173828 L 19.285156 23.136719 L 19.287109 22.552734 L 20.726562 21.111328 L 22.349609 19.490234 z M 18.273438 23.564453 L 18.273438 25.185547 L 20.300781 25.185547 L 20.322266 25.839844 L 19.242188 26.919922 L 17.800781 26.919922 L 17.080078 26.199219 L 17.080078 24.757812 L 18.273438 23.564453 z "
     />
</svg>
